X:1
T:Veni Emmanuel
T:Veni Emmanuel
T:15th Century French
T:Public Domain Courtesy of the Cyber Hymnal™
C:15th Century French
Z:Public Domain
Z:Courtesy of the Cyber Hymnal™
%%score ( 1 2 ) ( 3 4 ) ( 5 6 )
L:1/8
Q:1/4=112
M:none
K:G
V:1 treble 
V:2 treble 
V:3 treble 
V:4 treble 
V:5 bass 
V:6 bass 
V:1
 E2 | [EG]2 [B,B]2 [DB]2 [GB]2 | A2 c2 B2 [FA]2 | [DG]6 [DA]2 | [DB]2 [DG]2 [CE]2 [DG]2 | %5
 [EA]2 [CF]2 [B,E]2 [B,D]2 | [B,E]6 A2 | [CA]2 [A,E]2 E2 [^DF]2 | G4 [DF]2 [^CE]2 | D6 [B,G]2 | %10
 [DA]2 [DB]2 [DB]2 [GB]2 | A2 c2 B2 [FA]2 | G6 || [Gd]2 | [Fd]6 [GB]2 | [FB]6 [GB]2 | %16
 A2 c2 B2 [FA]2 G2 [FA]2 | [GB]2 [DG]2 [CE]2 [DG]2 | [EA]2 [CF]2 [B,E]2 [B,D]2 | [B,E]6 |] %20
V:2
 E2 | x8 | G6 x2 | x8 | x8 | x8 | x6 ED | x8 | E2 D2- x4 | D6 x2 | x8 | G6 x2 | G6 || x2 | x8 | %15
 x8 | G6 x6 | x8 | x8 | x6 |] %20
V:3
 E2 | [EG]2 [B,B]2 [DB]2 [GB]2 | A2 c2 B2 [FA]2 | [DG]6 [DA]2 | [DB]2 [DG]2 [CE]2 [DG]2 | %5
 [EA]2 [CF]2 [B,E]2 [B,D]2 | [B,E]6 A2 | [CA]2 [A,E]2 E2 [^DF]2 | G4 [DF]2 [^CE]2 | D6 [B,G]2 | %10
 [DA]2 [DB]2 [DB]2 [GB]2 | A2 c2 B2 [FA]2 | G6 || [Gd]2 | [Fd]6 [GB]2 | [FB]6 [GB]2 | %16
 A2 c2 B2 [FA]2 G2 [FA]2 | [GB]2 [DG]2 [CE]2 [DG]2 | [EA]2 [CF]2 [B,E]2 [B,D]2 | [B,E]6 |] %20
V:4
 E2 | x8 | G6 x2 | x8 | x8 | x8 | x6 ED | x8 | E2 D2- x4 | D6 x2 | x8 | G6 x2 | G6 || x2 | x8 | %15
 x8 | G6 x6 | x8 | x8 | x6 |] %20
V:5
 [E,G,]2 | [E,B,]2 [D,F,]2 [C,G,]2 [G,,D]2 | E4 [B,,D]2 [D,C]2 | [G,B,]6 [D,F,]2 | %4
 [G,,G,]2 [B,,G,]2 [C,G,]2 [B,,B,]2 | A,4 [B,,G,]2 [B,,F,]2 | [E,G,]6 A,2 | %7
 [A,,A,]2 [A,C]2 [G,B,]2 [F,A,]2 | G,4 [A,,A,]2 [A,,G,]2 | [D,F,]6 [E,G,]2 | %10
 [D,F,]2 [B,,F,]2 [G,,G,]2 [B,,D]2 | E4 [B,,D]2 [D,C]2 | [G,,B,]6 || [G,B,]2 | [D,A,]6 [E,E]2 | %15
 [B,,D]6 [G,,D]2 | E4 [B,,D]2 [D,C]2 [E,B,]2 [D,D]2 | [G,,D]2 [B,,G,]2 [C,G,]2 [B,,B,]2 | %18
 A,4 [B,,F,]2 x2 | [E,G,]6 |] %20
V:6
 x2 | x8 | C,2 A,,2 x4 | x8 | x8 | C,2 A,,2 x4 | x6 C,B,, | x8 | E,2 B,,2 x4 | x8 | x8 | %11
 C,2 A,,2 x4 | x6 || x2 | x8 | x8 | C,2 A,,2 x8 | x8 | C,2 A,,2 B,,2 x2 | x6 |] %20

